StripePaymentsUI/StripePaymentsUI/Resources/StripePaymentsUI.xcassets/CardsNoPadding/stp_card_unpadded_amex.imageset/stp_card_unpadded_amex.svg

<svg fill="none" height="16" viewBox="0 0 24 16" width="24" xmlns="http://www.w3.org/2000/svg"><path d="m22 0h-20c-1.10457 0-2 .89543-2 2v12c0 1.1046.89543 2 2 2h20c1.1046 0 2-.8954 2-2v-12c0-1.10457-.8954-2-2-2z" fill="#016fd0"/><g clip-rule="evenodd" fill-rule="evenodd"><path d="m13.764 13.3939v-5.70143l10.1476.00911v1.57489l-1.1729 1.25343 1.1729 1.2649v1.6083h-1.8726l-.9952-1.0982-.9881 1.1023z" fill="#fffffe"/><path d="m14.4419 12.7688v-4.44888h3.7723v1.02488h-2.5509v.6957h2.4901v1.0078h-2.4901v.6833h2.5509v1.0372z" fill="#016fd0"/><path d="m18.1953 12.7688 2.0873-2.227-2.0874-2.22179h1.6156l1.2755 1.41003 1.2791-1.41003h1.5462v.035l-2.0429 2.18679 2.0429 2.1639v.0631h-1.5617l-1.2981-1.4242-1.2848 1.4242z" fill="#016fd0"/><path d="m14.2374 2.63196h2.446l.8592 1.95085v-1.95085h3.0198l.5208 1.46157.5225-1.46157h2.3059v5.70139h-12.1865z" fill="#fffffe"/><path d="m14.7005 3.25137-1.9741 4.44517h1.3539l.3725-.89016h2.0179l.3722.89016h1.3875l-1.9657-4.44517zm.1696 2.55744.592-1.41507.5915 1.41507z" fill="#016fd0"/><path d="m18.2119 7.69572v-4.44508l1.9031.00654.9793 2.73273.9856-2.73927h1.8316v4.44508l-1.1786.01043v-3.05334l-1.1125 3.04291h-1.0758l-1.1357-3.05334v3.05334z" fill="#016fd0"/></g></svg>

<svg width="24" height="16" viewBox="0 0 24 16" fill="none" xmlns="http://www.w3.org/2000/svg">
<path d="M22 0H2C0.89543 0 0 0.89543 0 2V14C0 15.1046 0.89543 16 2 16H22C23.1046 16 24 15.1046 24 14V2C24 0.89543 23.1046 0 22 0Z" fill="#016FD0"/>
<path fill-rule="evenodd" clip-rule="evenodd" d="M13.764 13.3939V7.69247L23.9116 7.70158V9.27647L22.7387 10.5299L23.9116 11.7948V13.4031H22.039L21.0438 12.3049L20.0557 13.4072L13.764 13.3939Z" fill="#FFFFFE"/>
<path fill-rule="evenodd" clip-rule="evenodd" d="M14.4419 12.7688V8.31992H18.2142V9.3448H15.6633V10.0405H18.1534V11.0483H15.6633V11.7316H18.2142V12.7688H14.4419Z" fill="#016FD0"/>
<path fill-rule="evenodd" clip-rule="evenodd" d="M18.1953 12.7688L20.2826 10.5418L18.1952 8.32001H19.8108L21.0863 9.73004L22.3654 8.32001H23.9116V8.35501L21.8687 10.5418L23.9116 12.7057V12.7688H22.3499L21.0518 11.3446L19.767 12.7688H18.1953Z" fill="#016FD0"/>
<path fill-rule="evenodd" clip-rule="evenodd" d="M14.2374 2.63196H16.6834L17.5426 4.58281V2.63196H20.5624L21.0832 4.09353L21.6057 2.63196H23.9116V8.33335H11.7251L14.2374 2.63196Z" fill="#FFFFFE"/>
<path fill-rule="evenodd" clip-rule="evenodd" d="M14.7005 3.25137L12.7264 7.69654H14.0803L14.4528 6.80638H16.4707L16.8429 7.69654H18.2304L16.2647 3.25137H14.7005ZM14.8701 5.80881L15.4621 4.39374L16.0536 5.80881H14.8701Z" fill="#016FD0"/>
<path fill-rule="evenodd" clip-rule="evenodd" d="M18.2119 7.69572V3.25064L20.115 3.25718L21.0943 5.98991L22.0799 3.25064H23.9115V7.69572L22.7329 7.70615V4.65281L21.6204 7.69572H20.5446L19.4089 4.64238V7.69572H18.2119Z" fill="#016FD0"/>
</svg>
